img/adv-icon2.svg

<svg width="24" height="24" viewBox="0 0 24 24" fill="none" xmlns="http://www.w3.org/2000/svg">
    <g clip-path="url(#clip0_306_684)">
        <path d="M17.2006 2.4021H14.001V2.00214C14.001 1.78126 13.8219 1.60218 13.601 1.60218H11.8648C11.5266 0.642122 10.6195 0 9.60141 0C8.58354 0 7.67641 0.642122 7.33816 1.60218H5.60181C5.38094 1.60218 5.20185 1.78126 5.20185 2.00214V2.4021H2.00218C0.898383 2.40347 0.00374742 3.2981 0.00238037 4.4019V22.0001C0.00374742 23.1041 0.898383 23.9987 2.00218 23.9999H17.2006C18.3046 23.9987 19.1991 23.1041 19.2004 22.0001V4.4019C19.1991 3.2981 18.3046 2.40347 17.2006 2.4021ZM16.8007 18.4005H14.8009C14.1383 18.4005 13.601 18.9377 13.601 19.6004V21.6002H2.40214V4.80186H5.20185V5.20182C5.20185 5.42289 5.38094 5.60178 5.60181 5.60178H13.601C13.8219 5.60178 14.001 5.42289 14.001 5.20182V4.80186H16.8007V18.4005ZM16.2351 19.2004L14.4009 21.0348V19.6004C14.4009 19.3795 14.58 19.2004 14.8009 19.2004H16.2351ZM6.00177 2.4021H7.64164C7.83166 2.4023 7.99552 2.26852 8.0336 2.08221C8.18495 1.33658 8.84055 0.8007 9.60141 0.8007C10.3623 0.8007 11.0179 1.33658 11.1692 2.08221C11.2073 2.26852 11.3711 2.4023 11.5612 2.4021H13.201V4.80186H6.00177V2.4021ZM18.4005 22.0001C18.4005 22.6629 17.8633 23.2 17.2006 23.2H2.00218C1.33955 23.2 0.802299 22.6629 0.802299 22.0001V4.4019C0.802299 3.73927 1.33955 3.20202 2.00218 3.20202H5.20185V4.00194H2.00218C1.7813 4.00194 1.60222 4.18102 1.60222 4.4019V22.0001C1.60222 22.2212 1.7813 22.4001 2.00218 22.4001H14.001C14.107 22.3999 14.2088 22.3579 14.2837 22.2829L17.4834 19.0832C17.5168 19.0492 17.544 19.0096 17.5635 18.966C17.569 18.9537 17.5723 18.9416 17.5766 18.9289C17.5881 18.8953 17.5951 18.8604 17.5975 18.8248C17.5975 18.8165 17.6022 18.8088 17.6022 18.8004V4.4019C17.6022 4.18102 17.4231 4.00194 17.2022 4.00194H14.001V3.20202H17.2006C17.8633 3.20202 18.4005 3.73927 18.4005 4.4019V22.0001Z" fill="#fff"/>
        <path d="M10.4013 2.40211C10.4013 2.84405 10.0432 3.20203 9.6014 3.20203C9.15965 3.20203 8.80148 2.84405 8.80148 2.40211C8.80148 1.96035 9.15965 1.60219 9.6014 1.60219C10.0432 1.60219 10.4013 1.96035 10.4013 2.40211Z" fill="#fff"/>
        <path d="M4.80189 8.40149H4.40193C4.18105 8.40149 4.00197 8.58057 4.00197 8.80145C4.00197 9.02252 4.18105 9.20141 4.40193 9.20141H4.80189C5.02276 9.20141 5.20185 9.02252 5.20185 8.80145C5.20185 8.58057 5.02276 8.40149 4.80189 8.40149Z" fill="#fff"/>
        <path d="M6.00177 8.80145C6.00177 9.02252 6.18085 9.20141 6.40173 9.20141H14.8009C15.0218 9.20141 15.2008 9.02252 15.2008 8.80145C15.2008 8.58057 15.0218 8.40149 14.8009 8.40149H6.40173C6.18085 8.40149 6.00177 8.58057 6.00177 8.80145Z" fill="#fff"/>
        <path d="M4.80189 10.8012H4.40193C4.18105 10.8012 4.00197 10.9803 4.00197 11.2012C4.00197 11.4223 4.18105 11.6012 4.40193 11.6012H4.80189C5.02276 11.6012 5.20185 11.4223 5.20185 11.2012C5.20185 10.9803 5.02276 10.8012 4.80189 10.8012Z" fill="#fff"/>
        <path d="M14.8009 10.8012H6.40173C6.18085 10.8012 6.00177 10.9803 6.00177 11.2012C6.00177 11.4223 6.18085 11.6012 6.40173 11.6012H14.8009C15.0218 11.6012 15.2008 11.4223 15.2008 11.2012C15.2008 10.9803 15.0218 10.8012 14.8009 10.8012Z" fill="#fff"/>
        <path d="M4.80189 13.201H4.40193C4.18105 13.201 4.00197 13.3801 4.00197 13.601C4.00197 13.822 4.18105 14.0009 4.40193 14.0009H4.80189C5.02276 14.0009 5.20185 13.822 5.20185 13.601C5.20185 13.3801 5.02276 13.201 4.80189 13.201Z" fill="#fff"/>
        <path d="M14.8009 13.201H6.40173C6.18085 13.201 6.00177 13.3801 6.00177 13.601C6.00177 13.822 6.18085 14.0009 6.40173 14.0009H14.8009C15.0218 14.0009 15.2008 13.822 15.2008 13.601C15.2008 13.3801 15.0218 13.201 14.8009 13.201Z" fill="#fff"/>
        <path d="M4.80189 15.6008H4.40193C4.18105 15.6008 4.00197 15.7798 4.00197 16.0007C4.00197 16.2218 4.18105 16.4007 4.40193 16.4007H4.80189C5.02276 16.4007 5.20185 16.2218 5.20185 16.0007C5.20185 15.7798 5.02276 15.6008 4.80189 15.6008Z" fill="#fff"/>
        <path d="M14.8009 15.6008H6.40173C6.18085 15.6008 6.00177 15.7798 6.00177 16.0007C6.00177 16.2218 6.18085 16.4007 6.40173 16.4007H14.8009C15.0218 16.4007 15.2008 16.2218 15.2008 16.0007C15.2008 15.7798 15.0218 15.6008 14.8009 15.6008Z" fill="#fff"/>
        <path d="M4.80189 18.0005H4.40193C4.18105 18.0005 4.00197 18.1796 4.00197 18.4005C4.00197 18.6215 4.18105 18.8004 4.40193 18.8004H4.80189C5.02276 18.8004 5.20185 18.6215 5.20185 18.4005C5.20185 18.1796 5.02276 18.0005 4.80189 18.0005Z" fill="#fff"/>
        <path d="M12.8011 18.0005H6.40173C6.18085 18.0005 6.00177 18.1796 6.00177 18.4005C6.00177 18.6215 6.18085 18.8004 6.40173 18.8004H12.8011C13.022 18.8004 13.201 18.6215 13.201 18.4005C13.201 18.1796 13.022 18.0005 12.8011 18.0005Z" fill="#fff"/>
    </g>
    <defs>
        <clipPath id="clip0_306_684">
            <rect width="24" height="24" fill="white"/>
        </clipPath>
    </defs>
</svg>

<svg width="24" height="24" fill="none" xmlns="http://www.w3.org/2000/svg"><g clip-path="url(#clip0_306_684)" fill="#fff"><path d="M17.2 2.402h-3.199v-.4a.4.4 0 00-.4-.4h-1.736a2.4 2.4 0 00-4.527 0H5.602a.4.4 0 00-.4.4v.4h-3.2a2.002 2.002 0 00-2 2V22a2.002 2.002 0 002 2h15.199a2.002 2.002 0 002-2V4.402a2.002 2.002 0 00-2-2zM16.8 18.4h-2a1.2 1.2 0 00-1.199 1.2v2H2.402V4.802h2.8v.4c0 .22.179.4.4.4H13.6a.4.4 0 00.4-.4v-.4h2.8V18.4zm-.565.8l-1.834 1.835V19.6a.4.4 0 01.4-.4h1.434zM6.002 2.402h1.64a.4.4 0 00.392-.32 1.6 1.6 0 013.135 0 .4.4 0 00.392.32h1.64v2.4h-7.2v-2.4zM18.4 22a1.2 1.2 0 01-1.2 1.2H2.002a1.2 1.2 0 01-1.2-1.2V4.402a1.2 1.2 0 011.2-1.2h3.2v.8h-3.2a.4.4 0 00-.4.4V22c0 .221.18.4.4.4h11.999a.4.4 0 00.283-.117l3.2-3.2a.4.4 0 00.08-.117l.013-.037a.405.405 0 00.02-.104c0-.008.005-.016.005-.025V4.402a.4.4 0 00-.4-.4h-3.201v-.8h3.2a1.2 1.2 0 011.2 1.2V22z"/><path d="M10.401 2.402a.8.8 0 11-1.6 0 .8.8 0 011.6 0zM4.802 8.401h-.4a.4.4 0 000 .8h.4a.4.4 0 100-.8zm1.2.4a.4.4 0 00.4.4H14.8a.4.4 0 100-.8H6.4a.4.4 0 00-.4.4zm-1.2 2h-.4a.4.4 0 000 .8h.4a.4.4 0 100-.8zm9.998 0H6.403a.4.4 0 000 .8H14.8a.4.4 0 100-.8zm-9.998 2.4h-.4a.4.4 0 000 .8h.4a.4.4 0 100-.8zm9.998 0H6.403a.4.4 0 000 .8H14.8a.4.4 0 100-.8zM4.802 15.6h-.4a.4.4 0 100 .8h.4a.4.4 0 100-.8zm9.998 0H6.403a.4.4 0 100 .8H14.8a.4.4 0 100-.8zM4.802 18h-.4a.4.4 0 000 .8h.4a.4.4 0 100-.8zm7.999 0h-6.4a.4.4 0 000 .8h6.4a.4.4 0 100-.8z"/></g><defs><clipPath id="clip0_306_684"><path fill="#fff" d="M0 0h24v24H0z"/></clipPath></defs></svg>
